X:1519
T:Piper's Son, The
R:reel
N:"collected from J. O'Neill"
B:"O'Neill's Dance Music of Ireland, 1519"
T: ma.c an .piobaire.
Z:transcribed by John B. Walsh, walsh@math.ubc.ca 8/23/96
M:C|
L:1/8
K:Em
BEE^c dcdB|A2 ((3FED) FA A2|BEEF GAB^c|d^cdB e2 d=c|
BEE^c dcdB|AD ((3FED) FA A2|BEEF GAB^c|dBA=c BE E2||
{f}e^def gfge|^defg afdf|e^def gfe^c|dBA=c BE E2|
{f}e^def gfe^c|^defg afdf|g2 f^d e^c=dA|((3B^cd) A=c BE E2||


